X:1
T: Exhileration again
C:Bruce Shawyer
R:Reel
Q:232
K:Am
M:4/4
L:1/16
E2|:"Am"A4A2B2 c2B2 A2c2|"G"B4B2A2G8|"F"A4A2G2 F2G2 A2F2|"E7"^G8E8|
|1"Am"A4A2B2 c2B2 A2c2|"G"B4B2A2G8|"E7"B2A2 ^G2^F2 E2F2 G2E2|"Am"A8A4E4:|
|2"Am"A4A2B2 c2B2 A2c2|"G"B4B2c2d6d2|"E7"e2d2 c2B2 A2^G2 ^F2E2|"Am"A8A4E4|
|:"Am"c4c2d2 e2d2 c2d2|"Em"e4e2d2B8|"F"f2e2 d2c2 "Dm"B4A4|"E7"^G8E8|
|1"Am"c4c2d2 e2d2 c2e2|"G"d4d2c2B8|"E7"e2d2 c2B2 A2^G2 ^F2E2|"Am"A8A4E4:|
|2"Am"c4c2d2 e2d2 c2e2|"G"d4d2e2f4g4|"E7"^g2^f2 e2d2 c2B2 A2^G2|"Am"A8A6||
